X: 21463
T: the Brechin Lilt
%R: reel
B: James Oswald "The Caledonian Pocket Companion" v.2 p.146 #3
Z: 2018 John Chambers <jc:trillian.mit.edu>
M: C|
L: 1/8
K: A
|: "_Brisk"\
A2Ac TBABc | A2Ac e2a2 |\
A2Ac TBABc | Aaag Tf2e2 :|
|:\
(ag)(fe) fcc2 | (af)(ec) B2a2 |\
A2=g2 (fa)(ec) | (fa)(ec) TB2A2 :|
